X:468
T: DA DROBEN AUF JENEM BERGE
N: E0419B
O: Europa, Mitteleuropa, Deutschland
R: Liebes - Lied, Liebe
M: 6/8
L: 1/16
K: G
D2 | G3ABcd3edc | B4A2G4
A2 | B3cd2d2c2B2 | A8z2
Bc | d2B2d2d2B2d2 | e3fe2d4
c2 | B3cB2A2G2A2 | G8z2

@@@ Tune index: 4118
